X: 0
T: Sybille F\"ohrenbach
C: Anselm Lingnau, 28 Jan 1996
N: Anselm comments:
N: As the title suggests, this tune is dedicated to our good friend and fellow dancer Sybille.
R: strathspey
Z: 2006 John Chambers <jc:trillian.mit.edu>
M: C|
L: 1/8
K: G
D2 | "G"G2 B>A G2 D2 | "Am"E<E c>B "D7"A3 D | "G"G<G d>c BG DB, | "Am"C<C A>G "D7"D2 (3DEF |
y2 | "G"G2 B>A G2 D2 | "Am"E<E c>B "D7"A2 B>c | "G"d<d "(C)"g>e "G"de "(Em)"dB | "Am"c<E "D7"B>A "G"G2 |]
d2 | "G"g<g d>B "Am"e<e c>B | "D7"A<A dc "B7"B3 A | "Em"G<G "(D)"d>c "G"BG DB, | "Am"C<C A>G "D7"DA df |
y2 | "G"g<g b>a "Em"g<g "Bm"dB | "Am"c>d cB "D7"A2 B>c | "G"d<d "(C)"g>e "G"de "(Em)"dB | "Am"c<E "D7"B>A "G"G2 |]

